!!!!SEGMENT: pl-wtm--r-1427--001-004_stefani-jozef--no-19-credo.krn
!!!cenid: 18xx:2440
!!!COM: Stefani, Józef
!!!COM-rismID: pe30024097
!!!CDT: 1800/04/16-1876/03/19
!!!CNT: Polish
!!!OPR: No. 19
!!!OTL: Credo
!!!OMV: 004
!!!PDT:
!!!AGN: Sacred; Mass
!!!YEC: Copyright 2022 Narodowy Instytut Fryderyka Chopina (https://polishscores.org)
!!!YEM: License CC-BY-4.0 (https://creativecommons.org/licenses/by/4.0)
!!!SMS-siglum: PL-Wtm
!!!SMS-shelfmark: R 1427
!!!SMS-shelfwork: 001-004 M
!!!SMS-variant:
!!!SMS-altvar:
!!!NIFC-rismSourceID: 1001116126
!!!NIFC-rismChildID: 1001116126
!!!NIFC-islandoraID:
!!!URL-pdf-islandora:
!!!URL-scan:
!!!IIIF:
!!!ONB-nifc: UWAGA: części Mszy: 1. Kyrie, 2. Gloria, 3. Graduale, 4. Credo, 5. Offertorium.
!!!OMD: Adagio.
!!!AIN: 2 organ 1 vox
!!!key:
**kern	**kern	**kern	**text	**text	**text
*part3	*part2	*part1	*	*	*
*staff3	*staff2	*staff1	*	*	*
*Iorgan	*Iorgan	*Ivox	*	*	*
*I"Organy	*I"Organy	*I"Głos	*	*	*
*>[A,B,B,B]	*>[A,B,B,B]	*>[A,B,B,B]	*>[A,B,B,B]	*>[A,B,B,B]	*>[A,B,B,B]
*>A	*>A	*>A	*>A	*>A	*>A
*clefF4	*clefG2	*clefG2	*	*	*
*k[]	*k[]	*k[]	*	*	*
*a:	*a:	*a:	*	*	*
*M2/2	*M2/2	*M2/2	*	*	*
*met(c|)	*met(c|)	*met(c|)	*	*	*
*all\right	*	*all\right	*	*	*
4E\	4e/	4r	.	.	.
=1	=1	=1	=1	=1	=1
*	*^	*	*	*	*
4D/	4.f/	1d	1r	.	.	.
4C/	.	.	.	.	.	.
.	16e/LL	.	.	.	.	.
.	16f/JJ	.	.	.	.	.
2BB/	4g/	.	.	.	.	.
.	4f/	.	.	.	.	.
=2	=2	=2	=2	=2	=2	=2
4C/	4.e/	1c	1r	.	.	.
4BB/	.	.	.	.	.	.
.	16d/LL	.	.	.	.	.
.	16e/JJ	.	.	.	.	.
2AA/	4f/	.	.	.	.	.
.	4e/	.	.	.	.	.
=3	=3	=3	=3	=3	=3	=3
4BB/	4.d/	1B	1r	.	.	.
4AA/	.	.	.	.	.	.
.	16c/LL	.	.	.	.	.
.	16d/JJ	.	.	.	.	.
!	!LO:N:vis=8	!	!	!	!	!
2GG#X/	4eL/	.	.	.	.	.
!	!LO:N:vis=8	!	!	!	!	!
.	4dJ/	.	.	.	.	.
=	=	=	=	=	=	=
4AA\	4c/	2A</	2r	.	.	.
4F\	4d/	.	.	.	.	.
4E\	4e 4G#X</	4ryy	4r	.	.	.
*	*v	*v	*	*	*	*
=4!|:	=4!|:	=4!|:	=4!|:	=4!|:	=4!|:
*>B	*>B	*>B	*>B	*>B	*>B
4E 4EE\	4B< 4G#X</	4b\	1.) Wie-	2.) Że	3.) Ten
!!LO:LB:g=original
=5	=5	=5	=5	=5	=5
*2\right	*	*2\right	*	*	*
2E 2AA\	2c< 2A</	2cc\	-rze-	nie-	śmier-
2E 2EE\	2B< 2G#X</	2b\	-my	-śmier-	-cią
=6	=6	=6	=6	=6	=6
2E 2AA\	2c< 2A</	2cc\	w Bo-	-tel-	swo-
4E 4EE\	4B< 4G#X</	4b\	-ga	-ność	-ją
4E 4AA\	4c< 4A</	4cc\	ie-	u	ród
=7	=7	=7	=7	=7	=7
2Gn 2GG\	2d< 2B</	2dd\	-dne-	Bo-	ludz-
4E 4AA\	4c< 4A</	4cc\	-go	-ga	-ki
4G 4GG\	4d< 4B</	4dd\	na	nas	wy-
=8	=8	=8	=8	=8	=8
2.G 2.C\	2.e 2.c/	2ee\	wie-	cze-	-ba-
.	.	4ee\	-ki	-ka	-wił
4C\	4e 4c 4G</	4ee\	Co	Dla	I
=9	=9	=9	=9	=9	=9
2D\	2f 2B< 2G#X</	2ff\	ka-	któ-	krwią
2C\	2e 2c 2A</	2ee\	-rze	-rej	do
!!LO:LB:g=original
=10	=10	=10	=10	=10	=10
2D\	2f 2B< 2G#X</	2ff\	zbro-	czy-	Nie-
4C\	4e 4A</	4ee\	-dnie	-niem	-ba
4D\	4d 4B</	4dd\	A	na	o-
=11	=11	=11	=11	=11	=11
*	*^	*	*	*	*
!LO:N:vis=2	!	!	!	!	!	!
2.E\	2c#X/	2.A</	2cc#X\	cno-	źie-	-zna-
.	4B/	.	4b\	-ty	-mi	-czył
4E 4EE\	4e 4G#X</	4ryy	4ee\	na-	o-	nam
*	*v	*v	*	*	*	*
=12	=12	=12	=12	=12	=12
2.E 2.AA\	2.c#X 2.A</	2cc#X\	-gra-	-fia-	śla-
.	.	4cc#\	-dza	-ry	-dy
4Gn 4GGn\	4c# 4A</	4cc#\	Swiat	Ze	A
=13	=13	=13	=13	=13	=13
*	*^	*	*	*	*
2F 2FF\	2d/	1A<	2dd\	ca-	Sy-	po
2C#X 2CC#X\	2e/	.	2ee\	-ły	-na	Bo-
*	*v	*v	*	*	*	*
=14	=14	=14	=14	=14	=14
*	*	*^	*	*	*
2D 2DD\	2f 2A</	2ff\	2ryy	z Je-	Swe-	-że-
2F 2FF\	4d/	4dd\	4ryy	-go	-go	-mu
.	4A</	4a/	4a\	i-	chciał	na
*	*	*v	*v	*	*	*
!!LO:LB:g=original
=15	=15	=15	=15	=15	=15
2E 2GG\	4G</	(4g/	-stnie-	wcie-	wie-
.	2c</	4cc\)	.	.	.
2F 2D 2GG\	.	4cc\	-ie	-lić	-ki
.	4B</	4b\	o-	w czło-	zo-
=16	=16	=16	=16	=16	=16
2.E 2.C\	2.c</	2cc\	-pie-	-wie-	-sta-
.	.	4cc\	-ki	-ka	-wił
4C\	4c< 4E</	4cc\	w mi-	co	Na-
=17	=17	=17	=17	=17	=17
*	*^	*	*	*	*
2BB\	4.e/	2G#X</	(4.ee\	-ło-	nas	-u-
.	8d/	.	8dd\)	.	.	.
2AA\	2c 2A</	2ryy	2cc\	-ści	na-	-ki
=18	=18	=18	=18	=18	=18	=18
2BB\	4.e/	2G#X</	(4.ee\	Je-	-u-	świę-
.	8d/	.	8dd\)	.	.	.
4AA\	4c/	4A</	4cc\	-go	-czył	-te
4D\	4B/	4F</	4b\	i	mi-	i
!!LO:PB:g=original
=19	=19	=19	=19	=19	=19	=19
2.E\	2c/	2.A</	2cc\	mą-	-ło-	świę-
.	4B/	.	4b\	-drość	-ści	-te
4E 4EE\	4e 4G#X</	4ryy	4ee\	i	i	przy-
*	*v	*v	*	*	*	*
=20	=20	=20	=20	=20	=20
2.AA\	2.A/	2a/	wła-	wia-	-kła-
.	.	4a/	-dza.	-ry.	-dy
4Gn\	4c#X 4A</	4r	.	.	.
=21	=21	=21	=21	=21	=21
*	*^	*	*	*	*
4F\	4d/	[1A<	1r	.	.	.
4G\	4c#X/	.	.	.	.	.
4F\	4d/	.	.	.	.	.
4C#X\	4e/	.	.	.	.	.
=22	=22	=22	=22	=22	=22	=22
2D\	2f/	1A<]	1r	.	.	.
2F\	2d/	.	.	.	.	.
*	*v	*v	*	*	*	*
!!LO:LB:g=original
=23	=23	=23	=23	=23	=23
2A/	2c</	1r	.	.	.
4A/	2B</	.	.	.	.
4G#X/	.	.	.	.	.
=24	=24	=24	=24	=24	=24
2ryy	2.A</	2r	.	.	.
4ryy	.	4r	.	.	.
=:|!	=:|!	=:|!	=:|!	=:|!	=:|!
*-	*-	*-	*-	*-	*-
!!!system-decoration: s1{(s2,s3)}
!!!RDF**kern: > = above
!!!RDF**kern: < = below
!!!ENC: Marta Lawrence
!!!END: 2021-06-27
!!!ENC: Marcin Jachim
!!!END: 2021-06-20
